X:0168
M:2/4
L:1/8
Q:1/4=104
K:G
gGGA|B2AG|aAAB|c2BA|GABc|dedB|cAdB|G2G2:|

